archdroid-icon-theme/Archdroid-Yellow/status/scalable/printer-error.svg

<?xml version="1.0" encoding="UTF-8" standalone="no"?>
<svg
   xmlns:dc="http://purl.org/dc/elements/1.1/"
   xmlns:cc="http://creativecommons.org/ns#"
   xmlns:rdf="http://www.w3.org/1999/02/22-rdf-syntax-ns#"
   xmlns:svg="http://www.w3.org/2000/svg"
   xmlns="http://www.w3.org/2000/svg"
   xmlns:sodipodi="http://sodipodi.sourceforge.net/DTD/sodipodi-0.dtd"
   xmlns:inkscape="http://www.inkscape.org/namespaces/inkscape"
   width="48"
   height="48"
   viewBox="0 0 48 48"
   id="svg2"
   version="1.1"
   inkscape:version="0.91 r13725"
   sodipodi:docname="printer-error.svg"
   style="fill:#FFEB3B">
  <metadata
     id="metadata10">
    <rdf:RDF>
      <cc:Work
         rdf:about="">
        <dc:format>image/svg+xml</dc:format>
        <dc:type
           rdf:resource="http://purl.org/dc/dcmitype/StillImage" />
        <dc:title />
      </cc:Work>
    </rdf:RDF>
  </metadata>
  <defs
     id="defs8" />
  <sodipodi:namedview
     pagecolor="#ffffff"
     bordercolor="#666666"
     borderopacity="1"
     objecttolerance="10"
     gridtolerance="10"
     guidetolerance="10"
     inkscape:pageopacity="0"
     inkscape:pageshadow="2"
     inkscape:window-width="1366"
     inkscape:window-height="713"
     id="namedview6"
     showgrid="false"
     inkscape:zoom="1.890942881990092"
     inkscape:cx="138.4187066706922"
     inkscape:cy="-8.593735717651541"
     inkscape:window-x="0"
     inkscape:window-y="30"
     inkscape:window-maximized="1"
     inkscape:current-layer="svg2"
     inkscape:snap-bbox="true"
     inkscape:bbox-nodes="true"
     inkscape:snap-smooth-nodes="true"
     inkscape:object-nodes="true"
     borderlayer="true"
     fit-margin-top="0"
     fit-margin-left="0"
     fit-margin-right="0"
     fit-margin-bottom="0"
     inkscape:snap-nodes="true" />
  <path
     style="fill:#FFEB3B"
     d="M 4.98828125 2.16015625 L 2.16015625 4.98828125 L 13.171875 16 L 10 16 C 6.69 16 3.999999999999999 18.69000000000001 4 22 L 4 34 L 12 34 L 12 42 L 36 42 L 36 38.828125 L 43.171875 46 L 46 43.171875 L 36.828125 34 L 32 29.171875 L 30.828125 28 L 18.828125 16 L 16.828125 14 L 12 9.171875 L 4.98828125 2.16015625 z M 14.486328125 6 L 22.486328125 14 L 36 14 L 36 6 L 14.486328125 6 z M 24.486328125 16 L 42.484375 34 L 44 34 L 44 22 C 44 18.69 41.31 16 38 16 L 24.486328125 16 z M 38 20 C 39.11 20 40 20.88999999999999 40 22 C 40 23.10999999999999 39.11 24 38 24 C 36.89 24 35.99999999999999 23.11 36 22 C 36 20.88999999999999 36.89000000000002 20 38 20 z M 16 28 L 25.171875 28 L 32 34.828125 L 32 38 L 16 38 L 16 28 z "
     id="path4-3" />
</svg>

<svg xmlns="http://www.w3.org/2000/svg" viewBox="0 0 48 48" fill="#FFEB3B"><path d="m4.988 2.16l-2.828 2.828 11.01 11.01h-3.172c-3.31 0-6 2.69-6 6v12h8v8h24v-3.172l7.172 7.172 2.828-2.828-9.172-9.172-4.828-4.828-1.172-1.172-12-12-2-2-4.828-4.828-7.01-7.01m9.498 3.84l8 8h13.514v-8h-21.514m10 10l17.998 18h1.516v-12c0-3.31-2.69-6-6-6h-13.514m13.514 4c1.11 0 2 .89 2 2 0 1.11-.89 2-2 2-1.11 0-2-.89-2-2 0-1.11.89-2 2-2m-22 8h9.172l6.828 6.828v3.172h-16v-10"/></svg>
